church-outline.svg

<svg fill="currentColor" viewBox="0 0 24 24"><path d="M18 12.22V9l-5-2.5V5h2V3h-2V1h-2v2H9v2h2v1.5L6 9v3.22L2 14v8h9v-4c0-.55.45-1 1-1s1 .45 1 1v4h9v-8zM20 20h-5v-2.04c0-1.69-1.35-3.06-3-3.06s-3 1.37-3 3.06V20H4v-4.79l4-1.81v-3.35L12 8l4 2.04v3.35l4 1.81zm-8-9.5c.83 0 1.5.67 1.5 1.5s-.67 1.5-1.5 1.5-1.5-.67-1.5-1.5.67-1.5 1.5-1.5"/></svg>

<svg  viewBox="0 0 24 24" fill="currentColor"><path  d="M18 12.22V9L13 6.5V5H15V3H13V1H11V3H9V5H11V6.5L6 9V12.22L2 14V22H11V18C11 17.45 11.45 17 12 17C12.55 17 13 17.45 13 18V22H22V14L18 12.22M20 20H15V17.96C15 16.27 13.65 14.9 12 14.9C10.35 14.9 9 16.27 9 17.96V20H4V15.21L8 13.4V10.05L12 8L16 10.04V13.39L20 15.2V20M12 10.5C12.83 10.5 13.5 11.17 13.5 12C13.5 12.83 12.83 13.5 12 13.5C11.17 13.5 10.5 12.83 10.5 12C10.5 11.17 11.17 10.5 12 10.5Z"/></svg>
